packages/bezier-icons/icons/breaktime.svg

<svg width="24" height="24" viewBox="0 0 24 24" fill="none" xmlns="http://www.w3.org/2000/svg">
<path fill-rule="evenodd" clip-rule="evenodd" d="M14.9972 5.00049C14.4662 5.00049 14.0002 5.32349 14.0002 5.69249V6.00049H12.0002V5.69249C12.0002 4.20849 13.3442 3.00049 14.9972 3.00049C15.5282 3.00049 15.9942 2.67649 15.9942 2.30749V2.00049H17.9942V2.30749C17.9942 3.79249 16.6502 5.00049 14.9972 5.00049ZM20.0002 12.8218C20.5892 12.5378 21.0002 11.9398 21.0002 11.2438V8.99976H20.0002V12.8218ZM13.0002 18.9957C15.7572 18.9957 18.0002 16.7527 18.0002 13.9957V8.99573H6.00021V13.9957C6.00021 16.7527 8.24321 18.9957 11.0002 18.9957H13.0002ZM20.0002 6.99573V6.99973H22.0002C22.5525 6.99973 23.0002 7.44744 23.0002 7.99973V11.2437C23.0002 13.0797 21.6742 14.6057 19.9302 14.9307C19.7172 16.5157 18.9772 17.9337 17.8852 18.9997H20.0002C20.5525 18.9997 21.0002 19.4474 21.0002 19.9997C21.0002 20.552 20.5525 20.9997 20.0002 20.9997H4.00021C3.44793 20.9997 3.00021 20.552 3.00021 19.9997C3.00021 19.4474 3.44793 18.9997 4.00021 18.9997H6.11521C4.81221 17.7277 4.00021 15.9557 4.00021 13.9957V7.99573C4.00021 7.44344 4.44793 6.99573 5.00021 6.99573H20.0002Z" fill="#313234"/>
</svg>

<svg xmlns="http://www.w3.org/2000/svg" width="24" height="24" fill="none" viewBox="0 0 24 24"><path fill="#313234" fill-rule="evenodd" d="M14.997 5c-.53 0-.997.323-.997.692V6h-2v-.308C12 4.208 13.344 3 14.997 3c.531 0 .997-.324.997-.693V2h2v.307C17.994 3.792 16.65 5 14.997 5M20 12.822c.59-.284 1-.882 1-1.578V9h-1zm-7 6.174c2.757 0 5-2.243 5-5v-5H6v5c0 2.757 2.243 5 5 5zm7-12V7h2a1 1 0 0 1 1 1v3.244a3.76 3.76 0 0 1-3.07 3.687A6.98 6.98 0 0 1 17.885 19H20a1 1 0 1 1 0 2H4a1 1 0 1 1 0-2h2.115A6.98 6.98 0 0 1 4 13.996v-6a1 1 0 0 1 1-1z" clip-rule="evenodd"/></svg>
